!!!COM: Gabriel Faure/
!!!CNT: Francais
!!!TXO: Francais
!!!OTL: Nell
!!!OPS: Op. 18
!!!ONM: No. 1
!!!LYR: Leconte de Lisle
!!!ENC: Jacob Pegg
!!!YOR: Album of Twenty Songs (Vingt Me/lodies,) Volume II
!!!YOR: Edward B. Marks Music Corporation, RCA Building, Radio
!!!YOR: City, New York 20, N.Y.
!!!ODT: 1878/
!!NB: Vocal melody and text only encoded.
!!NB: First instance of melodic material only encoded.
**kern	**silbe
*clef G2	*
*k[b-e-a-d-g-c-]	*
*M4/4	*
*MM66	*
!! Andante, quasi allegretto. quarter =66
!!created: 2/5/04 17:51
!!proofed and posted: 2/6/04 12:50
!!edit time: 46 min.
=1	=1
2r	.
4r	.
8r	.
{8g-	{Ta
=2	=2
4g-	ro-
8a-	-se
8b-	de
4b-	pourpre
8cc-	a\
8dd-	ton
=3	=3
8ee-	clair
8ff	so-
2ee-}	-leil,}
{4ff	{o^
=4	=4
4gg-	Juin,
8g-	e/-
8a-	-tin-
4b-	-cel-
8a-	-le en-
8dd-	-i-
=5	=5
[2dd-	-vre/-
8dd-]}	-e/,}
8r	.
{8b-	{Penche
8cc-	aus-
=6	=6
8dd-	-si
8a-	vers
4.cc-	moi
8cc-	ta
(8b-	cou-
8cc-)	|
=7	=7
8dd-	-pe
8a-	do-
4.cc-	-re/-
8cc-}	-e:}
{(4cc-	{mon
=8	=8
4b-	coeur
8ccn	a\
8dd-	ta
4ff	ro-
8ee-	-se est
8a-)	pa-
=9	=9
(2a-	-reil.
4dd-)}	|}
4r	.
!! 10-13 like 2-5
=13	=13
2r	.
4r	.
{(8b-	{Plus
8dd-)	|
=14	=14
8ccn	d'un
8b-	ra-
4.a-	-mier
8a-	chante
8dd-	au
8ff	bois
=15	=15
8ee-	e/-
8dd-	-car-
2ccn	-te/,
8b-	o^
8a-	mon
=16	=16
4.gg-}	coeur,}
{8ff	{sa
4ee-	plain-
8dd-	-te a-
8b-	-mou-
=17	=17
1ee-	-reu-
=18	=18
[2dd-	-se.
4dd-]}	|}
4r	.
=19	=19
{8ccn	{Que
8dd-	ta
8ee-	per-
8ff	-le est
4gn	dou-
8f#	-ce au
8gn	ciel
=20	=20
8.b-	en-
16a-	-flam-
2a-}	-me/,}
4r	.
=21	=21
8r	.
{8g-	{E-
8dd-	-toi-
8gn	-le
8b-	de
8a-	la
8dd-	nuit
8a-	pen-
=22	=22
4cc-	-si-
[4b-	-ve!
8b-]}	|}
8r	.
{8ff-	{Mais
8ee-	com-
=23	=23
8dd-	-bien
8cc-	plus
2cc-	dou-
8cc-	-ce est
8b-	la
=24	=24
8a-	clar-
8g-	-te/
4.g-	vi-
8g-}	-ve}
{8f	{Qui
8g-	ray-
=25	=25
4dd-	-on-
8dd-	-ne en
8cc-	mon
(4b-	coeur,
[4a-)	|
=26	=26
4a-]}	|}
{8a-	{en
8ff	mon
(8ee-	coeur
8dd-)	|
(8an	char-
8b-)	|
=27	=27
[1ccn	-me/!
=28	=28
2ccn]}	|}
2r	.
=33	=33
8r	.
8r	.
2r	.
{8cc-	{che\-
8dd-	-re a-
=34	=34
8.ee-	-mour,
16b-	o^
2dd-	Nell,
(8ee-	ne
8ff	fleu-
=35	=35
4.aa-	-ris-
8gg-	-se
4gg-	plus
8ff	ton
8ee-	i-
=36	=36
2ee-	-ma-
4dd-)}	-ge!}
{8b-	{ne
8dd-	fleu-
=37	=37
4.ee-	-ris-
8dd-	-se
4gg-	plus
8dd-	ton
8b-	i-
=38	=38
(4a-	-ma-
2.dd-)	|
=39	=39
1dd-}	-ge!}
*-	*-
